Origami/64x64/apps/zandronum.svg

<svg width="64" height="64" version="1.1" viewBox="0 0 64 64" xmlns="http://www.w3.org/2000/svg">
 <path d="m7.0071479 22.341406v10.658594c0 2.365902-0.188418 6.438612 1.3695084 8.334374 2.5912907 4.34182 8.1442157 13.737604 10.275383 18.038674 0.695525 1.286426 2.239193 1.62695 4.187169 1.626952h9.160792 9.160792c1.947976-2e-6 3.491644-0.340526 4.18717-1.626952 2.131166-4.30107 7.68409-13.696854 10.275382-18.038674 1.557926-1.895762 1.369508-5.968472 1.369508-8.334374v-10.658594c0-8.941406-11.107934-17.341406-24.992852-17.341406s-24.992852 8.4-24.992852 17.341406z" style="opacity:.2"/>
 <path d="m7.0071479 21.341406v10.658594c0 2.365902-0.188418 6.438612 1.3695084 8.334374 2.5912907 4.34182 8.1442157 13.737604 10.275383 18.038674 0.695525 1.286426 2.239193 1.62695 4.187169 1.626952h9.160792 9.160792c1.947976-2e-6 3.491644-0.340526 4.18717-1.626952 2.131166-4.30107 7.68409-13.696854 10.275382-18.038674 1.557926-1.895762 1.369508-5.968472 1.369508-8.334374v-10.658594c0-8.941406-11.107934-17.341406-24.992852-17.341406s-24.992852 8.4-24.992852 17.341406z" style="fill:#6e6e6e"/>
 <path d="m10.499349 30.952616c-1.6195151 0.0112-3.2394585 0.03548-3.4912107 0.07382v1.37494c0 2.365902-0.19074 6.037228 1.3671874 7.93299 2.5912903 4.34182 8.1444413 13.737604 10.275607 18.038674 0.695525 1.286434 2.240392 1.626958 4.188369 1.62696h9.160698 9.160698c1.947978-2e-6 3.492842-0.340526 4.188368-1.626952 2.131166-4.30107 7.684316-13.696854 10.275608-18.038674 1.557926-1.895762 1.367188-5.567088 1.367188-7.93299v-1.37494c-0.291262 1.4e-5 -6.090292-0.039654-6.344944-0.025974-5.646918-0.047854-5.411222 1.968732-7.734918 5.600914-2.180318 3.764998-2.189298 9.461128-3.278536 12.198616-1.533006-5.283372-0.68902-16.79953-7.633464-16.79953s-6.100458 11.516158-7.633464 16.79953c-1.089238-2.737488-0.498218-8.433618-2.678536-12.198616-1.509403-2.557262-4.012913-5.433114-7.324-5.643302-0.223257-0.0142-2.241362-0.0168-3.864651-0.0054z" style="opacity:.2"/>
 <path d="m22.839302 60h9.160698 9.160698l-1.527234-11.2c-1.533006-5.283372-0.68902-15.4-7.633464-15.4s-6.100458 10.116628-7.633464 15.4z" style="opacity:.15"/>
 <path d="m13 29v3c4.138986-0.647978 6.048596 4.688861 7.755859 7.662109 1.596959 2.781151 3.611328 10.337891 3.611329 10.337891 1.533006-5.283372 0.688368-15 7.632812-15s6.099807 9.716628 7.632812 15c0 0 2.01437-7.55674 3.611329-10.337891 1.707263-2.973248 3.616873-8.310087 7.755859-7.662109v-3h-19-19z" style="opacity:.2"/>
 <path d="m13 28v3c4.138986-0.647978 6.048596 4.688861 7.755859 7.662109 1.596959 2.781151 3.611328 10.337891 3.611329 10.337891 1.533006-5.283372 0.688368-15 7.632812-15s6.099807 9.716628 7.632812 15c0 0 2.01437-7.55674 3.611329-10.337891 1.707263-2.973248 3.616873-8.310087 7.755859-7.662109v-3h-19-19z" style="fill:#7ac4eb"/>
 <path d="m32 4c-13.884918 0-24.992188 8.398438-24.992188 17.339844v1c0-8.941406 11.10727-17.339844 24.992188-17.339844s24.992188 8.398438 24.992188 17.339844v-1c0-8.941406-11.10727-17.339844-24.992188-17.339844z" style="fill:#ffffff;opacity:.1"/>
 <path d="m13 28v1h19 19v-1h-19-19z" style="fill:#ffffff;opacity:.1"/>
</svg>

<svg xmlns="http://www.w3.org/2000/svg" width="64" height="64" version="1.1" viewBox="0 0 64 64">
 <path style="opacity:0.2" d="m 7.0071479,22.341406 0,10.658594 c 0,2.365902 -0.188418,6.438612 1.3695084,8.334374 2.5912907,4.34182 8.1442157,13.737604 10.2753827,18.038674 0.695525,1.286426 2.239193,1.62695 4.187169,1.626952 L 32,61 l 9.160792,0 c 1.947976,-2e-6 3.491644,-0.340526 4.18717,-1.626952 2.131166,-4.30107 7.68409,-13.696854 10.275382,-18.038674 C 57.18127,39.438612 56.992852,35.365902 56.992852,33 l 0,-10.658594 C 56.992852,13.4 45.884918,5 32,5 18.115082,5 7.0071479,13.4 7.0071479,22.341406 Z"/>
 <path style="fill:#6e6e6e" d="m 7.0071479,21.341406 0,10.658594 c 0,2.365902 -0.188418,6.438612 1.3695084,8.334374 2.5912907,4.34182 8.1442157,13.737604 10.2753827,18.038674 0.695525,1.286426 2.239193,1.62695 4.187169,1.626952 L 32,60 l 9.160792,0 c 1.947976,-2e-6 3.491644,-0.340526 4.18717,-1.626952 2.131166,-4.30107 7.68409,-13.696854 10.275382,-18.038674 C 57.18127,38.438612 56.992852,34.365902 56.992852,32 l 0,-10.658594 C 56.992852,12.4 45.884918,4 32,4 18.115082,4 7.0071479,12.4 7.0071479,21.341406 Z"/>
 <path style="opacity:0.2" d="m 10.499349,30.952616 c -1.6195151,0.0112 -3.2394585,0.03548 -3.4912107,0.07382 l 0,1.37494 c 0,2.365902 -0.19074,6.037228 1.3671874,7.93299 2.5912903,4.34182 8.1444413,13.737604 10.2756073,18.038674 0.695525,1.286434 2.240392,1.626958 4.188369,1.62696 L 32,60 l 9.160698,0 c 1.947978,-2e-6 3.492842,-0.340526 4.188368,-1.626952 2.131166,-4.30107 7.684316,-13.696854 10.275608,-18.038674 1.557926,-1.895762 1.367188,-5.567088 1.367188,-7.93299 l 0,-1.37494 C 56.7006,31.026458 50.90157,30.98679 50.646918,31.00047 45,30.952616 45.235696,32.969202 42.912,36.601384 40.731682,40.366382 40.722702,46.062512 39.633464,48.8 38.100458,43.516628 38.944444,32.00047 32,32.00047 25.055556,32.00047 25.899542,43.516628 24.366536,48.8 23.277298,46.062512 23.868318,40.366382 21.688,36.601384 20.178597,34.044122 17.675087,31.16827 14.364,30.958082 c -0.223257,-0.0142 -2.241362,-0.0168 -3.864651,-0.0054 z"/>
 <path style="opacity:0.15" d="M 22.839302,60 32,60 41.160698,60 39.633464,48.8 C 38.100458,43.516628 38.944444,33.4 32,33.4 c -6.944444,0 -6.100458,10.116628 -7.633464,15.4 z"/>
 <path style="opacity:0.2" d="m 13,29 0,3 c 4.138986,-0.647978 6.048596,4.688861 7.755859,7.662109 C 22.352818,42.44326 24.367187,50 24.367188,50 25.900194,44.716628 25.055556,35 32,35 c 6.944444,0 6.099807,9.716628 7.632812,15 0,0 2.01437,-7.55674 3.611329,-10.337891 C 44.951404,36.688861 46.861014,31.352022 51,32 l 0,-3 -19,0 -19,0 z"/>
 <path style="fill:#7ac4eb" d="M 13 28 L 13 31 C 17.138986 30.352022 19.048596 35.688861 20.755859 38.662109 C 22.352818 41.44326 24.367187 49 24.367188 49 C 25.900194 43.716628 25.055556 34 32 34 C 38.944444 34 38.099807 43.716628 39.632812 49 C 39.632812 49 41.647182 41.44326 43.244141 38.662109 C 44.951404 35.688861 46.861014 30.352022 51 31 L 51 28 L 32 28 L 13 28 z"/>
 <path style="opacity:0.1;fill:#ffffff" d="M 32 4 C 18.115082 4 7.0078125 12.398438 7.0078125 21.339844 L 7.0078125 22.339844 C 7.0078125 13.398438 18.115082 5 32 5 C 45.884918 5 56.992188 13.398438 56.992188 22.339844 L 56.992188 21.339844 C 56.992188 12.398438 45.884918 4 32 4 z"/>
 <path style="opacity:0.1;fill:#ffffff" d="M 13 28 L 13 29 L 32 29 L 51 29 L 51 28 L 32 28 L 13 28 z"/>
</svg>
